MA4T1/111/aimg/azul-claro.svg

<svg clip-rule="evenodd" fill-rule="evenodd" stroke-linejoin="round" stroke-miterlimit="2" viewBox="0 0 70 177" xmlns="http://www.w3.org/2000/svg"><g fill-rule="nonzero"><path d="m0 29.932c.107-.561.215-1.015.276-1.475.05-.374-.182-.498-.515-.427-.191.041-.379.115-.553.204-.704.364-.719.541-.08 1.072.239.198.504.364.872.626m-4.211-3.341c.582.527 1.071.977 1.569 1.418.313.278.582.231.95-.004.524-.336 1.122-.567 1.708-.793.656-.254.841-.544.702-1.273-.13-.678-.34-.859-1.084-.767-1.309.16-2.578.462-3.845 1.419m4.45-2.225c-.378-2.052-.675-4.019-1.113-5.955-.518-2.29-1.289-4.529-1.715-6.833-.661-3.569-1.661-7.05-2.49-10.574-.24-1.019-.664-1.316-1.632-.934-.919.362-1.786.87-2.645 1.368-.608.353-.849.935-.716 1.641.207 1.095.382 2.197.643 3.279.363 1.511.784 3.007 1.196 4.505 1.224 4.455 2.455 8.908 3.686 13.361.074.269.174.531.244.8.112.43.384.483.722.295 1.143-.636 2.417-.759 3.82-.953m1.346 2.28c-.341 1.254-.655 2.517-1.037 3.76-.162.526-.381.6-.769.305-1.263-.963-2.517-1.939-3.728-2.966-.31-.262-.538-.704-.648-1.105-.892-3.267-1.746-6.543-2.612-9.817-.051-.192-.11-.383-.165-.575-.893-3.1-1.814-6.192-2.664-9.304-.356-1.303-.57-2.645-.831-3.973-.115-.586.051-1.137.473-1.539.458-.437.954-.858 1.5-1.168.69-.392 1.438-.693 2.18-.981.917-.357 1.644-.071 2.075.827.204.426.312.901.433 1.362.495 1.888 1.115 3.755 1.436 5.673.69 4.138 2.043 8.11 2.886 12.206.433 2.104.874 4.207 1.298 6.313.063.309.055.633.08.95.031.01.062.021.093.032" fill="#231f20" transform="matrix(5.55556 0 0 5.55556 60.56952444 4.8149918)"/><path d="m0 23.537c-1.403.194-2.677.317-3.819.953-.339.188-.611.135-.723-.295-.07-.269-.17-.531-.244-.8-1.231-4.453-2.462-8.906-3.686-13.361-.412-1.498-.833-2.995-1.196-4.505-.261-1.082-.436-2.184-.643-3.279-.133-.706.108-1.288.716-1.641.859-.498 1.726-1.006 2.645-1.368.968-.382 1.392-.085 1.632.934.83 3.524 1.829 7.005 2.49 10.573.427 2.305 1.197 4.544 1.716 6.834.438 1.935.735 3.903 1.112 5.955" fill="#00a5e1" transform="matrix(5.55556 0 0 5.55556 61.89730328 9.42055104)"/><path d="m0-.185c1.267-.958 2.536-1.259 3.845-1.419.744-.092.954.088 1.084.767.139.729-.046 1.019-.702 1.273-.586.226-1.184.457-1.708.793-.368.234-.637.282-.95.004-.498-.441-.987-.891-1.569-1.418" fill="#ffe5a6" transform="matrix(5.55556 0 0 5.55556 37.17506128 153.57066636)"/><path d="m0 1.973c-.368-.262-.633-.428-.872-.626-.639-.531-.624-.708.08-1.072.174-.089.362-.163.553-.204.333-.071.565.053.515.427-.061.46-.169.914-.276 1.475" fill="#00a5e1" transform="matrix(5.55556 0 0 5.55556 60.56952444 160.14289384)"/><path d="m0-9.713c.684 3.195 1.008 6.467.964 9.735.039-.444-.141-.875-.317-1.284-.806-1.873-1.589-3.757-2.419-5.619-.284-.637-.755-1.171-.384-1.84.148-.265 2.151-1.014 2.156-.992" fill="#fff" transform="matrix(5.55556 0 0 5.55556 29.89727768 61.95948196)"/></g></svg>

<?xml version="1.0" encoding="UTF-8" standalone="no"?>
<!DOCTYPE svg PUBLIC "-//W3C//DTD SVG 1.1//EN" "http://www.w3.org/Graphics/SVG/1.1/DTD/svg11.dtd">
<svg width="100%" height="100%" viewBox="0 0 70 177" version="1.1" xmlns="http://www.w3.org/2000/svg" xmlns:xlink="http://www.w3.org/1999/xlink" xml:space="preserve" xmlns:serif="http://www.serif.com/" style="fill-rule:evenodd;clip-rule:evenodd;stroke-linejoin:round;stroke-miterlimit:2;">
    <g transform="matrix(1,0,0,1,-7997.64,-11635.2)">
        <g transform="matrix(5.55556,0,0,5.55556,7263.77,9566.93)">
            <g transform="matrix(1,0,0,1,142.999,373.155)">
                <path d="M0,29.932C0.107,29.371 0.215,28.917 0.276,28.457C0.326,28.083 0.094,27.959 -0.239,28.03C-0.43,28.071 -0.618,28.145 -0.792,28.234C-1.496,28.598 -1.511,28.775 -0.872,29.306C-0.633,29.504 -0.368,29.67 0,29.932M-4.211,26.591C-3.629,27.118 -3.14,27.568 -2.642,28.009C-2.329,28.287 -2.06,28.24 -1.692,28.005C-1.168,27.669 -0.57,27.438 0.016,27.212C0.672,26.958 0.857,26.668 0.718,25.939C0.588,25.261 0.378,25.08 -0.366,25.172C-1.675,25.332 -2.944,25.634 -4.211,26.591M0.239,24.366C-0.139,22.314 -0.436,20.347 -0.874,18.411C-1.392,16.121 -2.163,13.882 -2.589,11.578C-3.25,8.009 -4.25,4.528 -5.079,1.004C-5.319,-0.015 -5.743,-0.312 -6.711,0.07C-7.63,0.432 -8.497,0.94 -9.356,1.438C-9.964,1.791 -10.205,2.373 -10.072,3.079C-9.865,4.174 -9.69,5.276 -9.429,6.358C-9.066,7.869 -8.645,9.365 -8.233,10.863C-7.009,15.318 -5.778,19.771 -4.547,24.224C-4.473,24.493 -4.373,24.755 -4.303,25.024C-4.191,25.454 -3.919,25.507 -3.581,25.319C-2.438,24.683 -1.164,24.56 0.239,24.366M1.585,26.646C1.244,27.9 0.93,29.163 0.548,30.406C0.386,30.932 0.167,31.006 -0.221,30.711C-1.484,29.748 -2.738,28.772 -3.949,27.745C-4.259,27.483 -4.487,27.041 -4.597,26.64C-5.489,23.373 -6.343,20.097 -7.209,16.823C-7.26,16.631 -7.319,16.44 -7.374,16.248C-8.267,13.148 -9.188,10.056 -10.038,6.944C-10.394,5.641 -10.608,4.299 -10.869,2.971C-10.984,2.385 -10.818,1.834 -10.396,1.432C-9.938,0.995 -9.442,0.574 -8.896,0.264C-8.206,-0.128 -7.458,-0.429 -6.716,-0.717C-5.799,-1.074 -5.072,-0.788 -4.641,0.11C-4.437,0.536 -4.329,1.011 -4.208,1.472C-3.713,3.36 -3.093,5.227 -2.772,7.145C-2.082,11.283 -0.729,15.255 0.114,19.351C0.547,21.455 0.988,23.558 1.412,25.664C1.475,25.973 1.467,26.297 1.492,26.614C1.523,26.624 1.554,26.635 1.585,26.646" style="fill:rgb(35,31,32);fill-rule:nonzero;"/>
            </g>
        </g>
        <g transform="matrix(5.55556,0,0,5.55556,7263.77,9566.93)">
            <g transform="matrix(1,0,0,1,143.238,373.984)">
                <path d="M0,23.537C-1.403,23.731 -2.677,23.854 -3.819,24.49C-4.158,24.678 -4.43,24.625 -4.542,24.195C-4.612,23.926 -4.712,23.664 -4.786,23.395C-6.017,18.942 -7.248,14.489 -8.472,10.034C-8.884,8.536 -9.305,7.039 -9.668,5.529C-9.929,4.447 -10.104,3.345 -10.311,2.25C-10.444,1.544 -10.203,0.962 -9.595,0.609C-8.736,0.111 -7.869,-0.397 -6.95,-0.759C-5.982,-1.141 -5.558,-0.844 -5.318,0.175C-4.488,3.699 -3.489,7.18 -2.828,10.748C-2.401,13.053 -1.631,15.292 -1.112,17.582C-0.674,19.517 -0.377,21.485 0,23.537" style="fill:rgb(0,165,225);fill-rule:nonzero;"/>
            </g>
        </g>
        <g transform="matrix(5.55556,0,0,5.55556,7263.77,9566.93)">
            <g transform="matrix(1,0,0,1,138.788,399.931)">
                <path d="M0,-0.185C1.267,-1.143 2.536,-1.444 3.845,-1.604C4.589,-1.696 4.799,-1.516 4.929,-0.837C5.068,-0.108 4.883,0.182 4.227,0.436C3.641,0.662 3.043,0.893 2.519,1.229C2.151,1.463 1.882,1.511 1.569,1.233C1.071,0.792 0.582,0.342 0,-0.185" style="fill:rgb(255,229,166);fill-rule:nonzero;"/>
            </g>
        </g>
        <g transform="matrix(5.55556,0,0,5.55556,7263.77,9566.93)">
            <g transform="matrix(1,0,0,1,142.999,401.114)">
                <path d="M0,1.973C-0.368,1.711 -0.633,1.545 -0.872,1.347C-1.511,0.816 -1.496,0.639 -0.792,0.275C-0.618,0.186 -0.43,0.112 -0.239,0.071C0.094,0 0.326,0.124 0.276,0.498C0.215,0.958 0.107,1.412 0,1.973" style="fill:rgb(0,165,225);fill-rule:nonzero;"/>
            </g>
        </g>
        <g transform="matrix(5.55556,0,0,5.55556,7263.77,9566.93)">
            <g transform="matrix(1,0,0,1,137.478,383.441)">
                <path d="M0,-9.713C0.684,-6.518 1.008,-3.246 0.964,0.022C1.003,-0.422 0.823,-0.853 0.647,-1.262C-0.159,-3.135 -0.942,-5.019 -1.772,-6.881C-2.056,-7.518 -2.527,-8.052 -2.156,-8.721C-2.008,-8.986 -0.005,-9.735 0,-9.713" style="fill:white;fill-rule:nonzero;"/>
            </g>
        </g>
    </g>
</svg>
